dist/svg/static/electric-charge-level-onequarter-small.svg

<svg xmlns="http://www.w3.org/2000/svg" width="24" height="24" viewBox="0 0 24 24"><g fill="none" stroke="currentColor" stroke-miterlimit="10"><path d="M11.5 3.5v16a1 1 0 0 0 1 1h9a1 1 0 0 0 1-1v-16c0-.578-.438-1-1-1h-9c-.562 0-1 .375-1 1zM21 17.5h-8 8zM21 14.5h-8 8z"/><g><path d="M7 5l-4.5 6.5h5l-5 6"/><path d="M2.5 14.5v3h3"/></g></g></svg>

<?xml version="1.0" encoding="UTF-8" standalone="no"?>
<svg width="24px" height="24px" viewBox="0 0 24 24" version="1.1" xmlns="http://www.w3.org/2000/svg" xmlns:xlink="http://www.w3.org/1999/xlink">
    <!-- Generator: sketchtool 46.2 (44496) - http://www.bohemiancoding.com/sketch -->
    <title>electric-charge-level-onequarter-small</title>
    <desc>Created with sketchtool.</desc>
    <defs></defs>
    <g id="icons-published" stroke="none" stroke-width="1" fill="none" fill-rule="evenodd">
        <g id="briefing" transform="translate(-1220.000000, -538.000000)"></g>
        <g id="electric-charge-level-onequarter-small" stroke="#000000">
            <path d="M11.5,3.5 L11.5,19.5 C11.5,20.1 11.9,20.5 12.5,20.5 L21.5,20.5 C22.1,20.5 22.5,20.1 22.5,19.5 L22.5,3.5 C22.5,2.9 22.1,2.5 21.5,2.5 L12.5,2.5 C11.9,2.5 11.5,2.9 11.5,3.5 Z M21,17.5 L13,17.5 L21,17.5 Z M21,14.5 L13,14.5 L21,14.5 Z" id="Shape"></path>
            <polyline id="Shape" points="7 5 2.5 11.5 7.5 11.5 2.5 17.5"></polyline>
            <polyline id="Shape" points="2.5 14.5 2.5 17.5 5.5 17.5"></polyline>
        </g>
    </g>
</svg>
